X:366
T:Oh, the Cruel Wars
B:Joyce, P. W.; "Old Irish Folk Music and Songs"
R:song air
N:See #361 for further history
A:Cork
O:Irish
L:1/8
M:3/4
K:G
ed|c2 B2 A2|B2 E2 E2|c2 B2 A2|B4 BA|
G2 B2 d2|cBABcA|GA G2 F2|E4||EF|
G3 A BG|E4 FG|ABAGFE|D4 GA|
B2 G2 G/A/B/d/|e2 B2 BA|GA G2 F2|E4||

